X: 41080
T: Trip To Pakistan, The
R: reel
M: 4/4
K: Eminor
|:EGBE G3 B|A3 G FGAF|EGBE G3 B|AFDE FEED:|
|:EGBE c3 A|B3 B BAGF|EGBE c3 A|BAGB ~A3G:|
|:FGBF GBFG|EFGE FGEF|DFAD FADA|AGFG ~DE3:|

